X: 163
T:That`s right Too
M:C
L:1/8
C:Liz Carroll
S:Calico : Celanova Square
K:D
D2 FA FEEA | d2 ef edBA |DEFA FEEA | {c}B2 AB FEEA | 
D2 FA FEEA |d2 ef edBA | BD (3DDD BDdB  |1 AFEF D2 z2 :|2 AFEF D2 z f||
afef d3 A | {B}A2 FA FEEf | afef ~d3 e |faab afeA | 
d2 ef edBA | ABcd AFEA | BD (3DDD BDdB |1 AFEF D2 z f :|2 AFEF D2 EF ||
